X: 06
T: IAN MacKENZIE'S REEL
C: Andrew Rankine 1980
R: reel
B: "The Complete Andrew Rankine Collection of Scottish Country Dance Tunes" p.9
Z: 2017 John Chambers <jc:trillian.mit.edu>
M: C|
L: 1/8
K: A
E2 |\
"A"A2AB cA"A7"ce | "D"agaf "A"e2 "F#7"c2 | "Bm"B2Bc dFBd | "E7"G2GA BEGB |
"A"A2AB "A7"cAce | "D"agaf "A"e2 "F#7"c2 | "Bm"B2Bc "E7"dEGB | "A"A2A2A2 :|
|: Bc |\
"D"d2de fefd | "A"c2cd "F#7"edec | "Bm"B2Bc "E7"dEGB | "A"AGAB "A7"cABc |
"D"d2de fefd | "A"c2cd "F#7"edec | "Bm"B2Bc "E7"dEGB | "A"A2A2A2 :|

%%sep 1 1 500

